X: 08038
T: FAITH'S JIG
C: Bob McQuillen 5 Feb 91
B: Bob's Note Book 8 #38
%R: jig
Z: 2021 John Chambers <jc:trillian.mit.edu>
M: 6/8
L: 1/8
K: D
FE \
| DFA GBd | cBc d2f | gfg ecA | dfd AFE |\
| DFA GBd | efg afd | BGB Agf | edc d :|
|: fa \
| fdB Afa | ged cBA | dfa geg | fdf e2a |\
| fdB Afa | ged cBA | dfa gec | edd d :|
%%begintext align
%% Faith McIntire
%% is Alan's nice wife, and they've got a whole
%% lot of hens who lay a whole bunch of eggs, and
%% every so often the good egg fairy lays a whole box
%% of these cackle berries on my door step, all of which
%% qualifies Faith for a tune of her own, wouldn't you
%% say so?  You bet! BRAWK!!
%%endtext

%%sep 1 1 500

%%sep 1 1 500

